T: Woodcock Hill
M: 4/4
L: 1/8
K: Gmaj
g2 g>b a>f (3def | g>dB>e d>BG>B | A>Bc>d e>gb>g | (3aba (3gfe d2 e>f |g>dg>b a>^ga>c' | (3bd'b g>b d'>bg>d | (3efg f>e d>cB>A |[1 (3GAG F>A G2- G>d :|[2 (3GAG F>A G2- G>e |||: d>^cd>f a>fd>f | a>gf>e d>b d'2 | (3c'd'c' a2 (3bc'b g>b | a>gf>e d2 e>f |g>d g2 a>^g a2 | (3bd'b g>b d'>bg>d | (3efg f>e d>cB>A |[1 (3GAG F>A G2- G>e :|[2 (3GAG F>A G2 |]
